src/view/frontend/web/svg/heroicons/solid/video-camera.svg

<svg viewBox="0 0 20 20" fill="currentColor" xmlns="http://www.w3.org/2000/svg">
<path d="M2 6C2 4.89543 2.89543 4 4 4H10C11.1046 4 12 4.89543 12 6V14C12 15.1046 11.1046 16 10 16H4C2.89543 16 2 15.1046 2 14V6Z" />
<path d="M14.5528 7.10557C14.214 7.27497 14 7.62123 14 8V12C14 12.3788 14.214 12.725 14.5528 12.8944L16.5528 13.8944C16.8628 14.0494 17.2309 14.0329 17.5257 13.8507C17.8205 13.6684 18 13.3466 18 13V7C18 6.65342 17.8205 6.33156 17.5257 6.14935C17.2309 5.96714 16.8628 5.95058 16.5528 6.10557L14.5528 7.10557Z" />
</svg>

<svg xmlns="http://www.w3.org/2000/svg" viewBox="0 0 20 20" fill="currentColor">
  <path d="M2 6a2 2 0 012-2h6a2 2 0 012 2v8a2 2 0 01-2 2H4a2 2 0 01-2-2V6zM14.553 7.106A1 1 0 0014 8v4a1 1 0 00.553.894l2 1A1 1 0 0018 13V7a1 1 0 00-1.447-.894l-2 1z"/>
</svg>
